icons/linear-ele-other-prize-trophy-1.svg

<svg xmlns="http://www.w3.org/2000/svg" width="32px" height="32px" viewBox="0 0 32 32" version="1.1">
    <title>linear-ele-other-prize-trophy-1</title>
    <g id="linear-ele-other-prize-trophy-1" stroke-width="1" fill-rule="evenodd">
        <path d="M11,30 L10.8668252,29.9930296 C9.66825208,29.8644471 9.71264368,28 11,28 L15,28 L15.0000487,21.9381123 C11.6857373,21.5248442 9.00102778,19.0841987 8.2261011,15.8963568 C4.74105622,15.2234897 3,12.1356487 3,7 C3,6.44771525 3.44771525,6 4,6 L8,6 L8,3 C8,2.44771525 8.44771525,2 9,2 L23,2 C23.5522847,2 24,2.44771525 24,3 L24,6 L28,6 C28.5522847,6 29,6.44771525 29,7 C29,12.1356487 27.2589438,15.2234897 23.7735827,15.8971027 C22.9990505,19.0838769 20.3148048,21.5243514 17.0009551,21.9379871 L17,28 L21,28 C22.3333333,28 22.3333333,30 21,30 L11,30 Z M22,4 L10,4 L10,14 C10,17.2383969 12.5655749,19.8775718 15.7750617,19.9958615 L16,20 C19.3137085,20 22,17.3137085 22,14 L22,4 Z M8,8 L5.024,8 L5.03721569,8.23439182 C5.23522349,11.3499102 6.2232922,13.1290598 7.99971049,13.7648662 L8,8 Z M26.975,8 L24,8 L24.0008792,13.764655 C25.7769265,13.128666 26.7647984,11.3495654 26.9627843,8.23439182 L26.975,8 Z" id="&#24418;&#29366;" fill-rule="nonzero" />
    </g>
</svg>

<svg xmlns="http://www.w3.org/2000/svg" viewBox="0 0 32 32"><path fill="currentColor" d="m11 30-.133-.007C9.668 29.864 9.713 28 11 28h4v-6.062a8.007 8.007 0 0 1-6.774-6.042C4.741 15.223 3 12.136 3 7a1 1 0 0 1 1-1h4V3a1 1 0 0 1 1-1h14a1 1 0 0 1 1 1v3h4a1 1 0 0 1 1 1c0 5.136-1.741 8.223-5.226 8.897A8.007 8.007 0 0 1 17 21.938L17 28h4c1.333 0 1.333 2 0 2zM22 4H10v10a6 6 0 0 0 5.775 5.996L16 20a6 6 0 0 0 6-6zM8 8H5.024l.013.234C5.235 11.35 6.223 13.13 8 13.764zm18.975 0H24v5.765c1.777-.636 2.765-2.415 2.963-5.53z"/></svg>
